findly-builder/apps/searchassist/src/assets/icons/landing/index-managment.svg

<svg width="40" height="40" viewBox="0 0 40 40" fill="none" xmlns="http://www.w3.org/2000/svg">
<path d="M29.1668 34.1665H10.8335V4.1665H29.1668V34.1665Z" fill="#85B7FE"/>
<path d="M30.8332 34.1665H9.1665V6.6665H30.8332V34.1665Z" fill="#0D6EFD"/>
<path d="M32.5 34.1665H7.5V9.1665H32.5V34.1665Z" fill="#85B7FE"/>
<path d="M10 13.3335H16.6667V15.0002H10V13.3335ZM18.3333 13.3335H24.1667V15.0002H18.3333V13.3335ZM10 16.6668H20V18.3335H10V16.6668Z" fill="#07377F"/>
<path d="M23.3333 24.1665V25.8332C23.3333 27.674 21.8408 29.1665 20 29.1665C18.1592 29.1665 16.6667 27.674 16.6667 25.8332V24.1665H7.5V34.1665H32.5V24.1665H23.3333Z" fill="#85B7FE"/>
<path d="M20 30.8335C17.2392 30.8335 15 28.5943 15 25.8335H5.83333C5.37333 25.8335 5 26.2068 5 26.6668V33.3335C5 34.7143 6.11917 35.8335 7.5 35.8335H32.5C33.8808 35.8335 35 34.7143 35 33.3335V26.6668C35 26.2068 34.6267 25.8335 34.1667 25.8335H25C25 28.5943 22.7608 30.8335 20 30.8335Z" fill="#FFDA2D"/>
</svg>

<svg width="40" height="40" fill="none" xmlns="http://www.w3.org/2000/svg"><path d="M29.167 34.166H10.833v-30h18.334v30Z" fill="#85B7FE"/><path d="M30.833 34.166H9.167v-27.5h21.666v27.5Z" fill="#0D6EFD"/><path d="M32.5 34.166h-25v-25h25v25Z" fill="#85B7FE"/><path d="M10 13.334h6.667V15H10v-1.666Zm8.333 0h5.834V15h-5.834v-1.666ZM10 16.666h10v1.666H10v-1.666Z" fill="#07377F"/><path d="M23.333 24.166v1.667a3.333 3.333 0 0 1-6.666 0v-1.666H7.5v10h25v-10h-9.167Z" fill="#85B7FE"/><path d="M20 30.834a5 5 0 0 1-5-5H5.833a.834.834 0 0 0-.833.833v6.666a2.5 2.5 0 0 0 2.5 2.5h25a2.5 2.5 0 0 0 2.5-2.5v-6.666a.834.834 0 0 0-.833-.834H25a5 5 0 0 1-5 5Z" fill="#FFDA2D"/></svg>
